!!!COM: Peter Cornelius
!!!CNT: Deutsch
!!!TXO: Deutsch
!!!OTL: Botschaft
!!!LYR: Anonymous, attributed to Cornelius
!!!OPR: 6 Lieder
!!!OPS: Op.5
!!!ONM: No. 1
!!!ENC: Ben Fuhrman
!!!YOR: CD Sheet Music, Mid-Romantic German Lieder: The Ultimate Collection.
!!!YOR: CD Sheet Music, LLC 2001
!!!ODT: 1856
!!NB: Only vocal melody encoded.
!!NB: First instance of melodic material only encoded.
!!created: 2/2/10 4:34PM
!!proofed and posted:2/2/10 4:35PM
**kern	**silbe
*clef G2	*
*k[f#c#]	*
*M6/8	*
*MM[Ziemlich bewegt]	*
=10	=10
4r	.
8r	.
{8f#	{Lie-
8g	-ben-
8f#	-des
=11	=11
4b	Wort,
8r	.
8g	dich
8g	send'
8f#	ich
=12	=12
4e}	fort!}
8r	.
{8g	{su-
8g	-che
8f#	dir
=13	=13
4cc#	dort
8a#	am
4f#	Rhei-
8f#	-nes-
=14	=14
4dd	-stran-
8b	-de,
8f#	su-
8g	-che
8g#	dir
=15	=15
4a	dort
8b	den
4a	scho2n-
8gn	-sten
=16	=16
4f#}	Ort.}
8r	.
{8d	{Lie-
8c#	-ben-
8d	-der
=17	=17
4.a	Mut,
8d	der
8c#	nim-
8d	-mer
=18	=18
4.dd}	ruht,}
{8g	{ku2hl'
8f#	in
8g	der
=19	=19
4ccn	Flut
8cc	am
(8a	Rhei-
8f#)	|
8d	-nes-
=20	=20
4d	-stran-
8g	-de,
8g	-ku2hl'
8f#	in
8e#	der
=21	=21
4b	Flut
8b	der
4d	Sehn-
8en	-sucht
=22	=22
4f#}	Glut!}
8r	.
{8f#	{Lie-
8g#	-ben-
8f#	-der
=23	=23
*k[f#c#g#d#a#]	*
4.b	Sinn
8g#	wo
8g#	ich
8f#	auch
=24	=24
4e#	bin,
8r	.
8cc#	flie-
8b#	-ge
8bn	mit
=25	=25
4a#	hin
8g#	zum
(8f#	Rhei
16g#	|
16a#)	|
(16b	-nes-
16cc#)	|
=26	=26
4dd#	-stran-
8b}	-de,}
{8g#	{flie-
8a#	-ge
8b	mit
=27	=27
4ee	hin,
8cc#	ihr
(8a#	Herx
8g#)	|
8f#	ge-
=28	=28
4.f#}	-winn,}
{8b	{flie-
8a#	-ge
8b	mit
=29	=29
(4b	hin
8c#)	|
(4e	ihr
8g#)	|
=30	=30
([4.a#	Herz
8a#]	|
8f#)	|
8cc#	ge-
=31	=31
*k[f#c#]	*
4.b}	winn!}
4r	.
8r	.
!! Rest to measure 40
=40	=40
4r	.
8r	.
{8f#	{Lie-
8g	-ben-
8f#	-der
=41	=41
4b	Sang,
8r	.
8g	to2-
8g	-ne
8f#	nicht
=42	=42
4e}	bang,}
8r	.
{8g	{dir
8g	zum
8f#	Em-
=43	=43
4cc#	-pfang
8a#	am
4f#	Rhei-
8f#	-nes-
=44	=44
4dd	-stran-
8b	-de,
8f#	dir
8g	zum
8g#	Em-
=45	=45
4a	-pfang
8b	to2nt
4a	su2s-
8gn	-ser
=46	=46
4f#}	Klang!}
8r	.
{8d	{Lie-
8c#	-ben-
8d	-der
=47	=47
4.a	Brust
8d	wer-
8c#	-de
8d	be-
=48	=48
4.dd}	-wusst,}
{8g	{wie
8f#	je-
8g	-de
=49	=49
4ccn	Lust
8ccn	am
(8a	Rhei-
8f#)	|
8d	-nes-
=50	=50
4d	-stran-
8g	-de,
8d	wie
8f#	je-
8e#	-de
=51	=51
4b	Lust
8b	ich
4d	mis-
8en	-sen
=52	=52
4f#}	musst.}
8r	.
{8f#	{Lie
8g#	-ben-
8f#	-der
=53	=53
*k[f#c#g#d#a#]	*
4.b	Drang
8g#	folg'
8g#	ich
8f#	so
=54	=54
4.e#	lang,
8cc#	bis
8b#	ich
8bn	er-
=55	=55
4a#	rang
8g#	am
(8f#	Rhei
16g#	|
16a#)	|
(16b	-nes-
16cc#)	|
=56	=56
4dd#	-stran-
8b}	-de,}
{8g#	{bis
8a#	ich
8b	er-
=57	=57
4ee	-rang
8cc#	dein
(8a#	Ziel,
8g#)	|
8f#	mein
=58	=58
4.f#}	Sang,}
{8b	{bis
8a#	ich
8b	er
=59	=59
(4b	rang
8c#)	|
(4e	dein
8g#)	|
=60	=60
[4.a#	Ziel,
8a#]	|
(8f#	mein
8cc#)	|
=61	=61
4.b}	Sang!}
4r	.
8r	.
==	==
*-	*-
